packages/tokens/icons/psdFile/size24Px.svg

<svg viewBox="0 0 24 24" fill="none" xmlns="http://www.w3.org/2000/svg" width="1em" height="1em"><path d="M13.4779 3V6.50924C13.4779 7.61381 14.3733 8.50924 15.4779 8.50924H19.3084" stroke="currentColor"/><path d="M18 20.5L6 20.5C5.17157 20.5 4.5 19.8284 4.5 19L4.5 5C4.5 4.17157 5.17157 3.5 6 3.5L13.569 3.5C13.9679 3.5 14.3505 3.65895 14.632 3.94171L19.063 8.39252C19.3429 8.67363 19.5 9.05415 19.5 9.45082V19C19.5 19.8284 18.8284 20.5 18 20.5Z" stroke="currentColor"/></svg>

<svg xmlns="http://www.w3.org/2000/svg" fill="none" viewBox="0 0 24 24" width="1em" height="1em"><path stroke="currentColor" d="M13.478 3v3.51a2 2 0 0 0 2 2h3.83"/><path stroke="currentColor" d="M18 20.5H6A1.5 1.5 0 0 1 4.5 19V5A1.5 1.5 0 0 1 6 3.5h7.569a1.5 1.5 0 0 1 1.063.442l4.431 4.45a1.5 1.5 0 0 1 .437 1.059V19a1.5 1.5 0 0 1-1.5 1.5Z"/></svg>
